X:1
T:James Gibb editions
T:O Crux, ave - Palestrina
%%score [ 1 2 3 4 ]
L:1/8
Q:1/4=108
M:2/2
K:Bb
V:1 treble nm="Soprano" snm="S"
V:2 treble nm="Alto" snm="A"
V:3 treble-8 nm="Tenor" snm="T"
V:4 bass nm="Bass" snm="B"
V:1
 B8 | (c8 | e8) | (e4 d4) |"^O  Crux  ave" (c4 B4) | (c4 d4) | %6
w: O|crux||a\- *|ve *|spes *|
"^G. P. da Palestrina\n(1526-94)" B6 A2 | G8- | G4 c4 | c4 d4 |[M:2/2] (B4 G4) | (B4 A4) | %12
w: u- ni-|ca:|* hoc|pas- si-|o\- *|nis *|
 (B3 A G4- | G4) ^F4 | G4 z2 G2- | G2 G2 B4 | G4 F4- | F4 (B4 | c4 e4- | e2 d2 c2 B2- | %20
w: tem\- * *|* po-|re, au\-|* ge pi-|is ju\-|* sti\-|||
 B2 AG A2) A2 | B4 z4 | c8 | e8 | (c8 | d8) | (B4 G4) | (B4 A4 |[Q:1/4=104] B8) | %29
w: * * * * ti-|am|re-|is-|que||do\- *|na *||
[Q:1/4=100] (A2[Q:1/4=99] G2[Q:1/4=97] G4- | %30
w: ve\- * *|
[Q:1/4=94] G2[Q:1/4=93] ^F[Q:1/4=93]=E[Q:1/4=92] F2)[Q:1/4=90] F2 |[Q:1/4=90] G8 |] %32
w: * * * * ni-|am.|
V:2
 F8 | F8 | (G6 F2 | E2 DC F4- | F4) D4 | (G4 F4) | (D2 =E2 F3 _E | D6) D2 | =E4 F4 | F4 F4 | %10
w: O|crux|a\- *||* ve|spes *|u\- * * *|* ni-|ca: hoc|pas- si-|
[M:2/2] G8- | G4 F4 | F6 E2 | D8- | D4 G4 | E4 F4 | B,8 | B4 (G4 | _A8 | G6) G2 | F4 F4- | F4 =E4 | %22
w: o\-|* nis|tem- po-|re,|* au-|ge pi-|is|ju- sti\-||* ti-|am re\-|* is-|
 F8 | G8 | F8- | F8 | z4 G4- | G4 ^F4 | G8 | E4 E4 | D6 D2 | D8 |] %32
w: que|do-|na,||re\-|* is-|que|do- na|ve- ni-|am.|
V:3
 d6 (B2- | B2 AG A4 | B4) (G4- | G2 A2 B4 | A4) G4- | G4 A2 (d2- | d2 cB d2 c2- | c2 =BA B2) B2 | %8
w: O crux||* a\-||* ve|* spes u\-||* * * * ni-|
 c4 A4 | A4 B2 (d2- |[M:2/2][K:treble-8] d2 cB c4) | d8 | (d6 c2 | B2 AG A2) A2 | G4 B4 | c4 d4 | %16
w: ca: hoc|pas- si- o\-||nis|tem\- *|* * * * po-|re, au-|ge pi-|
 (e6 dc | defd e4- | e4) c4 | (e6 d2 | c4 c4 | B4 B4- | B4 A4 | B4 E4 | F8 | z4 d4- | d4 c4 | d8 | %28
w: is * *||* ju-|sti\- *|* ti-|am re\-|* is-|que do-|na,|re\-|* is-|que|
 (B2 GABc) d2 | c6 B2 | A6) A2 | G8 |] %32
w: do\- * * * * na|ve\- *|* ni-|am.|
V:4
 B,,8 | F,8 | (E,6 D,2 | C,4 B,,4) | (F,4 G,4) | (E,4 D,4) | G,4 F,4 | G,8 | z4 F,4 | F,4 B,,4 | %10
w: O|crux|a\- *||ve *|spes *|u- ni-|ca:|hoc|pas- si-|
[M:2/2] E,8 | D,8 | B,,6 C,2 | D,8 | z4 E,4 | C,4 B,,4 | (E,F,G,A, B,4- | B,4) E,4 | (_A,6 G,F, | %19
w: o-|nis|tem- po-|re,|au-|ge pi-|is * * * *|* ju-|sti\- * *|
 E,4) E,4 | F,8 | G,8 | F,8 | E,4 B,4- | B,4 A,4 | B,8 | (G,3 F, E,4) | (D,8 | G,8) | (C,8 | %30
w: * ti-|am|re-|is-|que, re\-|* is-|que|do\- * *|na||ve\-|
 D,6) D,2 | G,8 |] %32
w: * ni-|am.|

